public/images/icons/important-numbers.svg

<svg width="60" height="60" viewBox="0 0 60 60" fill="none" xmlns="http://www.w3.org/2000/svg">
<path d="M50.5552 6.5276V53.4722C50.5552 56.5854 48.0315 59.1087 44.9188 59.1087H11.1619C8.04902 59.1087 5.52539 56.5854 5.52539 53.4722V6.5276C5.52539 3.41439 8.04902 0.891113 11.1619 0.891113H44.9188C48.0315 0.891113 50.5552 3.41439 50.5552 6.5276Z" fill="#48A5C2"/>
<path d="M50.5557 6.5276V53.4722C50.5557 56.5854 48.0321 59.1087 44.9194 59.1087H14.5486C11.4357 59.1087 8.91211 56.5854 8.91211 53.4722V6.5276C8.91211 3.41439 11.4357 0.891113 14.5486 0.891113H44.9194C48.0321 0.891113 50.5557 3.41439 50.5557 6.5276Z" fill="#8BD3F0"/>
<path d="M12.06 10.5149C12.06 11.2693 11.7538 11.9528 11.2594 12.4466C11.0062 12.7011 10.7052 12.9029 10.3736 13.0404C10.0421 13.1779 9.68659 13.2483 9.32766 13.2477H3.62344C2.11418 13.2477 0.890629 12.0237 0.890629 10.5149C0.890024 10.156 0.960456 9.80054 1.09787 9.46898C1.23528 9.13742 1.43695 8.83634 1.69125 8.58308C1.9445 8.32863 2.24563 8.12684 2.57725 7.98935C2.90888 7.85185 3.26444 7.78138 3.62344 7.78199H9.32766C10.8364 7.78199 12.06 9.00624 12.06 10.5149ZM12.06 20.2574C12.06 21.0119 11.7538 21.6953 11.2594 22.1893C11.0062 22.4437 10.7052 22.6455 10.3736 22.783C10.0421 22.9205 9.68659 22.991 9.32766 22.9903H3.62344C2.11418 22.9903 0.890629 21.7662 0.890629 20.2575C0.890629 19.5031 1.1959 18.8196 1.69125 18.3257C1.9445 18.0712 2.24563 17.8695 2.57725 17.732C2.90888 17.5945 3.26444 17.524 3.62344 17.5246H9.32766C10.8364 17.5246 12.06 18.7486 12.06 20.2574ZM12.06 30C12.06 30.7545 11.7538 31.4379 11.2594 31.9318C11.0062 32.1862 10.7052 32.388 10.3736 32.5255C10.0421 32.663 9.68659 32.7335 9.32766 32.7328H3.62344C2.11418 32.7328 0.890629 31.5088 0.890629 30C0.890629 29.2456 1.1959 28.5621 1.69125 28.0683C1.9445 27.8139 2.24563 27.6121 2.57725 27.4746C2.90888 27.3371 3.26444 27.2666 3.62344 27.2672H9.32766C10.8364 27.2672 12.06 28.4912 12.06 30ZM12.06 39.7426C12.06 40.497 11.7538 41.1805 11.2594 41.6744C11.0062 41.9288 10.7052 42.1306 10.3736 42.2681C10.0421 42.4056 9.68659 42.4761 9.32766 42.4755H3.62344C2.11418 42.4755 0.890629 41.2514 0.890629 39.7426C0.890629 38.9882 1.1959 38.3048 1.69125 37.8108C1.9445 37.5564 2.24563 37.3546 2.57725 37.2171C2.90888 37.0796 3.26444 37.0091 3.62344 37.0097H9.32766C10.8364 37.0097 12.06 38.2339 12.06 39.7425V39.7426ZM12.06 49.4852C12.0604 49.844 11.9899 50.1994 11.8525 50.531C11.7151 50.8625 11.5135 51.1636 11.2594 51.417C11.0062 51.6714 10.7052 51.8732 10.3736 52.0107C10.0421 52.1482 9.68659 52.2187 9.32766 52.2181H3.62344C2.11418 52.2181 0.890629 50.9939 0.890629 49.4853C0.890629 48.7308 1.1959 48.0474 1.69125 47.5534C1.9445 47.299 2.24563 47.0972 2.57725 46.9597C2.90888 46.8222 3.26444 46.7517 3.62344 46.7523H9.32766C10.8364 46.7523 12.06 47.9764 12.06 49.4852Z" fill="#D6D3C4"/>
<path d="M12.0607 10.5149C12.0607 11.2693 11.7545 11.9528 11.26 12.4466C11.0069 12.7011 10.7058 12.9029 10.3743 13.0404C10.0427 13.1779 9.68725 13.2483 9.32833 13.2477H6.95059C5.44192 13.2477 4.21778 12.0237 4.21778 10.5149C4.21716 10.156 4.28763 9.80045 4.42512 9.46888C4.56262 9.13731 4.76442 8.83625 5.01887 8.58308C5.27204 8.32862 5.5731 8.12683 5.90467 7.98933C6.23624 7.85184 6.59176 7.78137 6.95071 7.78199H9.32833C10.8371 7.78199 12.0607 9.00624 12.0607 10.5149ZM12.0607 20.2574C12.0607 21.0119 11.7545 21.6953 11.26 22.1893C11.0069 22.4437 10.7058 22.6455 10.3743 22.783C10.0427 22.9205 9.68725 22.991 9.32833 22.9903H6.95059C5.44192 22.9903 4.21778 21.7662 4.21778 20.2575C4.21711 19.8986 4.28755 19.543 4.42505 19.2115C4.56255 18.8799 4.76438 18.5788 5.01887 18.3257C5.27204 18.0712 5.5731 17.8694 5.90467 17.7319C6.23624 17.5945 6.59176 17.524 6.95071 17.5246H9.32833C10.8371 17.5246 12.0607 18.7486 12.0607 20.2574ZM12.0607 30C12.0607 30.7545 11.7545 31.4379 11.26 31.9318C11.0069 32.1862 10.7058 32.388 10.3743 32.5255C10.0427 32.663 9.68725 32.7335 9.32833 32.7328H6.95059C5.44192 32.7328 4.21778 31.5088 4.21778 30C4.21712 29.6411 4.28758 29.2856 4.42507 28.954C4.56257 28.6225 4.76439 28.3214 5.01887 28.0683C5.27204 27.8139 5.5731 27.6121 5.90467 27.4746C6.23624 27.3371 6.59176 27.2666 6.95071 27.2672H9.32833C10.8371 27.2672 12.0607 28.4912 12.0607 30ZM12.0607 39.7426C12.0607 40.497 11.7545 41.1805 11.26 41.6744C11.0069 41.9288 10.7058 42.1306 10.3743 42.2681C10.0427 42.4056 9.68725 42.4761 9.32833 42.4755H6.95059C5.44192 42.4755 4.21778 41.2514 4.21778 39.7426C4.21711 39.3837 4.28755 39.0282 4.42505 38.6966C4.56255 38.365 4.76438 38.064 5.01887 37.8108C5.27204 37.5564 5.5731 37.3546 5.90467 37.2171C6.23624 37.0796 6.59176 37.0091 6.95071 37.0097H9.32833C10.8371 37.0097 12.0607 38.2339 12.0607 39.7425V39.7426ZM12.0607 49.4852C12.0611 49.844 11.9905 50.1994 11.8531 50.531C11.7157 50.8625 11.5142 51.1636 11.26 51.417C11.0069 51.6714 10.7058 51.8732 10.3743 52.0107C10.0427 52.1482 9.68725 52.2187 9.32833 52.2181H6.95059C5.44192 52.2181 4.21778 50.9939 4.21778 49.4853C4.21711 49.1263 4.28755 48.7708 4.42505 48.4392C4.56255 48.1076 4.76438 47.8066 5.01887 47.5534C5.27204 47.299 5.5731 47.0972 5.90467 46.9597C6.23624 46.8222 6.59176 46.7517 6.95071 46.7523H9.32833C10.8371 46.7523 12.0607 47.9764 12.0607 49.4852Z" fill="#FBF2DC"/>
<path d="M44.9193 14.3812L39.3949 10.5496L33.8701 14.3812V1.01538H44.9193V14.3812Z" fill="#FF7265"/>
<path d="M44.4643 40.3691L42.7243 42.1096C41.5126 43.3213 40.0614 44.148 38.5233 44.5902C35.2207 45.5388 31.5155 44.712 28.9136 42.1096L17.8733 31.0693C14.0592 27.2556 14.0592 21.0721 17.8733 17.2585L19.6132 15.5181C20.2651 14.8667 21.3215 14.8667 21.973 15.5181L26.5167 20.0615C27.1681 20.7128 27.1681 21.7694 26.5167 22.4207L24.7768 24.1616L24.2507 24.6866C23.0785 25.859 23.0785 27.7605 24.2507 28.9333L31.0495 35.7316C32.2218 36.9039 34.1233 36.9039 35.2961 35.7316L35.8217 35.2066L37.5616 33.4661C38.2135 32.8143 39.2696 32.8143 39.9214 33.4661L44.4643 38.0099C45.1161 38.6612 45.1161 39.7178 44.4643 40.3691Z" fill="#FFCF70"/>
<path d="M38.5238 44.5902C35.2207 45.5387 31.5155 44.712 28.9136 42.1096L17.8733 31.0693C14.0592 27.2556 14.0592 21.0721 17.8733 17.2585L19.3339 15.7979L20.0384 19.4237C18.3246 21.1376 16.4666 26.758 20.6982 30.9905C24.9301 35.2225 29.458 39.7498 30.6878 40.9793C31.6098 41.9014 35.1506 44.8342 38.5238 44.5902Z" fill="#EE9E04"/>
<path d="M26.5164 22.4212L24.7766 24.1616L20.0382 19.4238L17.873 17.2581L19.6129 15.5181C20.2648 14.8667 21.3209 14.8667 21.9727 15.5181L24.138 17.6833L26.5224 20.0673C27.1679 20.7197 27.166 21.7713 26.5166 22.4212H26.5164Z" fill="#D6D3C4"/>
<path d="M26.5163 22.4212L24.7764 24.1617L20.0381 19.4238L21.7786 17.6833C22.4299 17.032 23.4864 17.032 24.1379 17.6833L26.5223 20.0674C27.1678 20.7198 27.1659 21.7713 26.5164 22.4212H26.5163Z" fill="#FBF2DC"/>
<path d="M44.4639 40.3692L42.7239 42.1097L35.8213 35.2066L37.5612 33.4661C38.2131 32.8143 39.2692 32.8143 39.921 33.4661L44.4639 38.01C45.1157 38.6613 45.1157 39.7179 44.4639 40.3692Z" fill="#D6D3C4"/>
<path d="M44.4647 40.3692L42.7242 42.1096L37.9863 37.3718L39.7263 35.6314C40.3782 34.98 41.4342 34.98 42.0861 35.6314L44.4702 38.0154C45.116 38.6677 45.1143 39.7196 44.4647 40.3692Z" fill="#FBF2DC"/>
<path d="M50.5554 17.2324C51.0476 17.2324 51.4467 16.8334 51.4467 16.3412V6.5277C51.4467 2.92828 48.5183 0 44.919 0H11.1621C7.56269 0 4.63441 2.92828 4.63441 6.5277V6.89121H3.62367C1.62563 6.89121 0 8.5166 0 10.5149C0 12.5129 1.62551 14.1389 3.62367 14.1389H4.63441V16.6338H3.62367C1.62563 16.6337 0 18.2591 0 20.2573C0 22.2554 1.62551 23.8814 3.62367 23.8814H4.63441V26.3763H3.62367C1.62563 26.3763 0 28.0017 0 30C0 31.9983 1.62551 33.6237 3.62367 33.6237H4.63441V36.1189H3.62367C1.62563 36.1189 0 37.7443 0 39.7426C0 41.7409 1.62551 43.3663 3.62367 43.3663H4.63441V45.8616H3.62367C1.62563 45.8616 0 47.487 0 49.4851C0 51.4833 1.62551 53.1088 3.62367 53.1088H4.63441V53.4723C4.63441 57.0717 7.56269 60 11.1621 60H44.919C48.5183 60 51.4467 57.0717 51.4467 53.4723V19.9058C51.4467 19.4138 51.0475 19.0146 50.5554 19.0146C50.0633 19.0146 49.6642 19.4138 49.6642 19.9058V53.4723C49.6642 56.0889 47.5356 58.2179 44.919 58.2179H11.1621C8.54555 58.2179 6.41695 56.0889 6.41695 53.4723V53.1088H9.32789C11.3259 53.1088 12.9516 51.4834 12.9516 49.4851C12.9516 47.4871 11.3259 45.8616 9.32789 45.8616H6.41695V43.3663H9.32789C11.3259 43.3663 12.9516 41.7408 12.9516 39.7426C12.9516 37.7445 11.3259 36.1189 9.32789 36.1189H6.41695V33.6237H9.32789C11.3259 33.6237 12.9516 31.9982 12.9516 30C12.9516 28.0018 11.3259 26.3763 9.32789 26.3763H6.41695V23.8816H9.32789C11.3259 23.8816 12.9516 22.2557 12.9516 20.2575C12.9516 18.2593 11.3259 16.6338 9.32789 16.6338H6.41695V14.139H9.32789C11.3259 14.139 12.9516 12.513 12.9516 10.515C12.9516 8.51684 11.3259 6.89133 9.32789 6.89133H6.41695V6.52781C6.41695 3.91125 8.54555 1.78219 11.1621 1.78219H32.9791V14.3813C32.9791 14.5439 33.0236 14.7034 33.1079 14.8426C33.1921 14.9817 33.3129 15.0951 33.457 15.1704C33.6011 15.2459 33.7632 15.2805 33.9256 15.2704C34.0879 15.2603 34.2445 15.2059 34.3781 15.1132L39.3947 11.6341L44.4114 15.1132C44.5604 15.2168 44.7376 15.2722 44.919 15.272C45.063 15.2721 45.2048 15.2372 45.3323 15.1704C45.4765 15.0951 45.5972 14.9817 45.6815 14.8426C45.7657 14.7034 45.8103 14.5439 45.8102 14.3813V1.86727C48.002 2.28562 49.6645 4.21559 49.6645 6.52781V16.3412C49.6644 16.4582 49.6874 16.5741 49.7322 16.6823C49.7769 16.7904 49.8425 16.8887 49.9253 16.9715C50.008 17.0543 50.1062 17.1199 50.2143 17.1647C50.3225 17.2095 50.4384 17.2324 50.5554 17.2324ZM11.1694 49.4852C11.1694 50.501 10.3432 51.3268 9.32789 51.3268H3.62367C2.60836 51.3268 1.78207 50.501 1.78207 49.4852C1.78207 48.4699 2.60824 47.6437 3.62367 47.6437H9.32789C10.3432 47.6437 11.1695 48.4699 11.1695 49.4852H11.1694ZM11.1694 39.7427C11.1694 40.7585 10.3432 41.5843 9.32789 41.5843H3.62367C2.60836 41.5843 1.78207 40.7585 1.78207 39.7427C1.78207 38.7274 2.60824 37.9011 3.62367 37.9011H9.32789C10.3432 37.9011 11.1695 38.7273 11.1695 39.7427H11.1694ZM11.1694 30.0001C11.1694 31.0159 10.3432 31.8417 9.32789 31.8417H3.62367C2.60836 31.8417 1.78207 31.0159 1.78207 30.0001C1.78207 28.9848 2.60824 28.1585 3.62367 28.1585H9.32789C10.3432 28.1585 11.1695 28.9847 11.1695 30.0001H11.1694ZM11.1694 20.2575C11.1694 21.2733 10.3432 22.0991 9.32789 22.0991H3.62367C2.60836 22.0991 1.78207 21.2733 1.78207 20.2575C1.78207 19.2422 2.60824 18.4159 3.62367 18.4159H9.32789C10.3432 18.4159 11.1695 19.2422 11.1695 20.2575H11.1694ZM11.1694 10.515C11.1694 11.5308 10.3432 12.3565 9.32789 12.3565H3.62367C2.60836 12.3565 1.78207 11.5308 1.78207 10.515C1.78207 9.49969 2.60824 8.6734 3.62367 8.6734H9.32789C10.3432 8.6734 11.1695 9.49957 11.1695 10.515H11.1694ZM44.0277 12.6788L39.9023 9.81715C39.7531 9.71382 39.5759 9.65847 39.3944 9.65847C39.213 9.65847 39.0358 9.71382 38.8866 9.81715L34.7612 12.6783V1.90664H44.0282V12.6786L44.0277 12.6788Z" fill="black"/>
<path d="M29.5431 41.4794L23.1175 35.0538C22.7692 34.7058 22.2052 34.7058 21.8573 35.0538C21.5095 35.4017 21.5093 35.9661 21.8573 36.314L28.283 42.7396C30.309 44.7661 33.0341 45.8615 35.8246 45.8611C36.8207 45.8612 37.8119 45.7218 38.7694 45.4469C40.4929 44.9511 42.0785 44.0149 43.3539 42.7396L45.0939 40.9992C46.0917 40.0018 46.0917 38.3777 45.0939 37.3797L40.5505 32.8359C39.5527 31.838 37.929 31.838 36.9309 32.8359L34.6651 35.1013C34.4695 35.2981 34.2368 35.454 33.9804 35.5602C33.7241 35.6664 33.4492 35.7206 33.1718 35.7199C32.8944 35.7205 32.6196 35.6662 32.3633 35.5601C32.107 35.4539 31.8743 35.298 31.6786 35.1013L24.8803 28.3032C24.4816 27.9044 24.2619 27.3739 24.2619 26.8099C24.2619 26.2458 24.4816 25.7153 24.88 25.3171L27.1464 23.0512C28.1442 22.0532 28.1442 20.4291 27.1464 19.4313L22.6025 14.8884C21.6046 13.8904 19.9809 13.8904 18.9826 14.8884L17.2426 16.6284C15.2293 18.6411 14.1211 21.3172 14.1211 24.1635C14.1211 27.0104 15.2293 29.6866 17.2426 31.6993L19.1885 33.6452C19.5364 33.9932 20.1008 33.9932 20.4488 33.6452C20.7967 33.2971 20.7967 32.7329 20.4488 32.385L18.5029 30.439C16.8265 28.7633 15.9032 26.5343 15.9032 24.164C15.9032 22.0931 16.6082 20.1306 17.9036 18.55L23.518 24.164C22.8479 24.8863 22.4798 25.8199 22.4798 26.8099C22.4798 27.8505 22.885 28.8282 23.6201 29.5633L30.4188 36.362C31.1541 37.0972 32.1318 37.5023 33.1718 37.5023C34.1629 37.5023 35.0963 37.1343 35.8177 36.4641L41.4313 42.0776C40.502 42.8367 39.4262 43.4034 38.2768 43.7338C35.1709 44.6256 31.8246 43.7618 29.5431 41.4794ZM21.3423 16.1486L25.886 20.692C26.1891 20.9949 26.1891 21.4879 25.8857 21.7914L24.7755 22.9015L19.1327 17.2586L20.2427 16.1486C20.3886 16.0029 20.5864 15.9211 20.7925 15.9211C20.9987 15.9211 21.1964 16.0029 21.3423 16.1486ZM39.2903 34.0961L43.8336 38.6403C43.9792 38.7862 44.0609 38.9838 44.0609 39.1899C44.0609 39.396 43.9792 39.5936 43.8336 39.7395L42.7235 40.8495L37.0807 35.2067L38.1912 34.0961C38.3371 33.9505 38.5347 33.8688 38.7408 33.8688C38.9469 33.8688 39.1445 33.9505 39.2904 34.0961H39.2903Z" fill="black"/>
</svg>

<svg xmlns="http://www.w3.org/2000/svg" width="60" height="60" fill="none" xmlns:v="https://vecta.io/nano"><path d="M50.555 6.528v46.945a5.64 5.64 0 0 1-5.636 5.636H11.162a5.64 5.64 0 0 1-5.637-5.636V6.528A5.64 5.64 0 0 1 11.162.891h33.757a5.64 5.64 0 0 1 5.636 5.636z" fill="#48a5c2"/><path d="M50.556 6.528v46.945a5.64 5.64 0 0 1-5.636 5.636H14.549a5.64 5.64 0 0 1-5.636-5.636V6.528A5.64 5.64 0 0 1 14.549.891h30.371a5.64 5.64 0 0 1 5.636 5.636z" fill="#8bd3f0"/><path d="M12.06 10.515c0 .754-.306 1.438-.801 1.932a2.72 2.72 0 0 1-1.932.801H3.623c-1.509 0-2.733-1.224-2.733-2.733a2.72 2.72 0 0 1 .801-1.932 2.72 2.72 0 0 1 1.932-.801h5.704c1.509 0 2.732 1.224 2.732 2.733zm0 9.743c0 .755-.306 1.438-.801 1.932a2.72 2.72 0 0 1-.886.594c-.332.137-.687.208-1.046.207H3.623c-1.509 0-2.733-1.224-2.733-2.733a2.72 2.72 0 0 1 .801-1.932 2.72 2.72 0 0 1 1.932-.801h5.704c1.509 0 2.732 1.224 2.732 2.733zm0 9.743c0 .755-.306 1.438-.801 1.932a2.72 2.72 0 0 1-.886.594c-.332.137-.687.208-1.046.207H3.623C2.114 32.733.891 31.509.891 30a2.72 2.72 0 0 1 .801-1.932 2.72 2.72 0 0 1 1.932-.801h5.704c1.509 0 2.732 1.224 2.732 2.733zm0 9.743c0 .754-.306 1.438-.801 1.932a2.72 2.72 0 0 1-1.932.801H3.623c-1.509 0-2.733-1.224-2.733-2.733a2.72 2.72 0 0 1 .801-1.932 2.72 2.72 0 0 1 1.932-.801h5.704c1.509 0 2.732 1.224 2.732 2.733h0zm0 9.743c0 .359-.07.714-.208 1.046s-.339.633-.593.886a2.72 2.72 0 0 1-1.932.801H3.623c-1.509 0-2.733-1.224-2.733-2.733a2.72 2.72 0 0 1 .801-1.932 2.72 2.72 0 0 1 1.932-.801h5.704c1.509 0 2.732 1.224 2.732 2.733z" fill="#d6d3c4"/><path d="M12.061 10.515a2.72 2.72 0 0 1-.801 1.932 2.72 2.72 0 0 1-1.932.801H6.951c-1.509 0-2.733-1.224-2.733-2.733a2.72 2.72 0 0 1 .801-1.932 2.72 2.72 0 0 1 1.932-.801h2.378c1.509 0 2.732 1.224 2.732 2.733zm0 9.743c0 .755-.306 1.438-.801 1.932a2.72 2.72 0 0 1-.886.594c-.332.137-.687.208-1.046.207H6.951c-1.509 0-2.733-1.224-2.733-2.733-.001-.359.07-.715.207-1.046s.339-.633.594-.886a2.72 2.72 0 0 1 1.932-.801h2.378c1.509 0 2.732 1.224 2.732 2.733zm0 9.743a2.72 2.72 0 0 1-1.686 2.526c-.332.137-.687.208-1.046.207H6.951c-1.509 0-2.733-1.224-2.733-2.733a2.72 2.72 0 0 1 .801-1.932 2.72 2.72 0 0 1 1.932-.801h2.378c1.509 0 2.732 1.224 2.732 2.733zm0 9.743c0 .754-.306 1.438-.801 1.932a2.72 2.72 0 0 1-1.932.801H6.951c-1.509 0-2.733-1.224-2.733-2.733a2.72 2.72 0 0 1 .801-1.932 2.72 2.72 0 0 1 1.932-.801h2.378c1.509 0 2.732 1.224 2.732 2.733h0zm0 9.743c0 .359-.07.714-.208 1.046s-.339.633-.593.886a2.72 2.72 0 0 1-1.932.801H6.951c-1.509 0-2.733-1.224-2.733-2.733a2.72 2.72 0 0 1 .801-1.932 2.72 2.72 0 0 1 1.932-.801h2.378c1.509 0 2.732 1.224 2.732 2.733z" fill="#fbf2dc"/><path d="M44.919 14.381l-5.524-3.832-5.525 3.832V1.015h11.049v13.366z" fill="#ff7265"/><path d="M44.464 40.369l-1.74 1.74a9.73 9.73 0 0 1-4.201 2.481c-3.303.949-7.008.122-9.61-2.481l-11.04-11.04a9.77 9.77 0 0 1 0-13.811l1.74-1.74a1.67 1.67 0 0 1 2.36 0l4.544 4.543a1.67 1.67 0 0 1 0 2.359l-1.74 1.741-.526.525c-1.172 1.172-1.172 3.074 0 4.247l6.799 6.798c1.172 1.172 3.074 1.172 4.247 0l.526-.525 1.74-1.741a1.67 1.67 0 0 1 2.36 0l4.543 4.544a1.67 1.67 0 0 1 0 2.359z" fill="#ffcf70"/><path d="M38.524 44.59c-3.303.948-7.008.122-9.61-2.481l-11.04-11.04a9.77 9.77 0 0 1 0-13.811l1.461-1.461.704 3.626c-1.714 1.714-3.572 7.334.66 11.567l9.99 9.989c.922.922 4.463 3.855 7.836 3.611z" fill="#ee9e04"/><path d="M26.516 22.421l-1.74 1.74-4.738-4.738-2.165-2.166 1.74-1.74a1.67 1.67 0 0 1 2.36 0l2.165 2.165 2.384 2.384a1.67 1.67 0 0 1-.006 2.354h0z" fill="#d6d3c4"/><path d="M26.516 22.421l-1.74 1.741-4.738-4.738 1.741-1.741a1.67 1.67 0 0 1 2.359 0l2.384 2.384a1.67 1.67 0 0 1-.006 2.354h0z" fill="#fbf2dc"/><path d="M44.464 40.369l-1.74 1.74-6.903-6.903 1.74-1.741a1.67 1.67 0 0 1 2.36 0l4.543 4.544a1.67 1.67 0 0 1 0 2.359z" fill="#d6d3c4"/><path d="M44.465 40.369l-1.74 1.74-4.738-4.738 1.74-1.74a1.67 1.67 0 0 1 2.36 0l2.384 2.384a1.67 1.67 0 0 1-.005 2.354z" fill="#fbf2dc"/><path d="M50.555 17.232a.89.89 0 0 0 .891-.891V6.528C51.447 2.928 48.518 0 44.919 0H11.162a6.54 6.54 0 0 0-6.528 6.528v.364h-1.01A3.63 3.63 0 0 0 0 10.515a3.63 3.63 0 0 0 3.624 3.624h1.011v2.495H3.624A3.63 3.63 0 0 0 0 20.257a3.63 3.63 0 0 0 3.624 3.624h1.011v2.495H3.624A3.63 3.63 0 0 0 0 30a3.63 3.63 0 0 0 3.624 3.624h1.011v2.495H3.624A3.63 3.63 0 0 0 0 39.743a3.63 3.63 0 0 0 3.624 3.624h1.011v2.495H3.624A3.63 3.63 0 0 0 0 49.485a3.63 3.63 0 0 0 3.624 3.624h1.011v.363A6.54 6.54 0 0 0 11.163 60H44.92a6.54 6.54 0 0 0 6.528-6.528V19.906a.891.891 0 1 0-1.782 0v33.567c0 2.617-2.129 4.746-4.745 4.746H11.162a4.75 4.75 0 0 1-4.745-4.746v-.363h2.911a3.63 3.63 0 0 0 3.624-3.624 3.63 3.63 0 0 0-3.624-3.623H6.417v-2.495h2.911a3.63 3.63 0 0 0 3.624-3.624 3.63 3.63 0 0 0-3.624-3.624H6.417v-2.495h2.911A3.63 3.63 0 0 0 12.952 30a3.63 3.63 0 0 0-3.624-3.624H6.417v-2.495h2.911a3.63 3.63 0 0 0 3.624-3.624 3.63 3.63 0 0 0-3.624-3.624H6.417v-2.495h2.911a3.63 3.63 0 0 0 3.624-3.624A3.63 3.63 0 0 0 9.328 6.89H6.417v-.364c0-2.617 2.129-4.746 4.745-4.746h21.817v12.599a.89.89 0 0 0 1.399.732l5.017-3.479 5.017 3.479a.89.89 0 0 0 1.399-.732V1.867c2.192.418 3.854 2.348 3.854 4.661v9.813a.89.89 0 0 0 .891.891zM11.169 49.485c0 1.016-.826 1.842-1.842 1.842H3.624c-1.015 0-1.842-.826-1.842-1.842s.826-1.841 1.842-1.841h5.704c1.015 0 1.842.826 1.842 1.841h0zm0-9.742c0 1.016-.826 1.842-1.842 1.842H3.624c-1.015 0-1.842-.826-1.842-1.842s.826-1.842 1.842-1.842h5.704c1.015 0 1.842.826 1.842 1.842h0zm0-9.743c0 1.016-.826 1.842-1.842 1.842H3.624c-1.015 0-1.842-.826-1.842-1.842s.826-1.842 1.842-1.842h5.704c1.015 0 1.842.826 1.842 1.842h0zm0-9.743c0 1.016-.826 1.842-1.842 1.842H3.624c-1.015 0-1.842-.826-1.842-1.842s.826-1.842 1.842-1.842h5.704c1.015 0 1.842.826 1.842 1.842h0zm0-9.742c0 1.016-.826 1.842-1.842 1.842H3.624c-1.015 0-1.842-.826-1.842-1.841s.826-1.842 1.842-1.842h5.704c1.015 0 1.842.826 1.842 1.842h0zm32.858 2.164l-4.125-2.862a.89.89 0 0 0-1.016 0l-4.125 2.861V1.907h9.267v10.772h0zm-14.484 28.8l-6.426-6.426a.891.891 0 1 0-1.26 1.26l6.426 6.426a10.66 10.66 0 0 0 7.542 3.121 10.67 10.67 0 0 0 2.945-.414 10.68 10.68 0 0 0 4.585-2.707l1.74-1.74c.998-.997.998-2.622 0-3.62l-4.543-4.544c-.998-.998-2.621-.998-3.62 0L34.666 35.1a2.09 2.09 0 0 1-.685.459 2.1 2.1 0 0 1-2.302-.459l-6.798-6.798a2.1 2.1 0 0 1 0-2.986l2.266-2.266c.998-.998.998-2.622 0-3.62l-4.544-4.543c-.998-.998-2.622-.998-3.62 0l-1.74 1.74c-2.013 2.013-3.121 4.689-3.121 7.535s1.108 5.523 3.121 7.536l1.946 1.946a.891.891 0 1 0 1.26-1.26l-1.946-1.946c-1.676-1.676-2.6-3.905-2.6-6.275a8.81 8.81 0 0 1 2-5.614l5.614 5.614c-.67.722-1.038 1.656-1.038 2.646a3.87 3.87 0 0 0 1.14 2.753l6.799 6.799a3.87 3.87 0 0 0 2.753 1.14c.991 0 1.925-.368 2.646-1.038l5.614 5.613a8.87 8.87 0 0 1-3.154 1.656c-3.106.892-6.452.028-8.734-2.254zm-8.201-25.331l4.544 4.543a.78.78 0 0 1 0 1.099l-1.11 1.11-5.643-5.643 1.11-1.11a.78.78 0 0 1 1.1 0zM39.29 34.096l4.543 4.544a.78.78 0 0 1 0 1.099l-1.11 1.11-5.643-5.643 1.111-1.111a.78.78 0 0 1 1.099 0h0z" fill="#000"/></svg>
